X: 24393
T: Lovely Nancy
R: jig
M: 6/8
K: Gmajor
|:B/c/|dBG g2 g|efg dBG|cde dBG|FAA ABc|
dB/c/d g2 g|efg dBG|cde dBG|FEF G2:|
|:A|BGG dGG|eGG dGG|BGG d2 G|FAA A2 c|
BGG dGG|eGG d2 c|BAG AGA|BGG G2:|

